svgs/regular/grate-droplet.svg

<svg xmlns="http://www.w3.org/2000/svg" viewBox="0 0 576 512"><!--! Font Awesome Pro 6.6.0 by @fontawesome - https://fontawesome.com License - https://fontawesome.com/license (Commercial License) Copyright 2024 Fonticons, Inc. --><path d="M0 88C0 57.1 25.1 32 56 32l72 0 96 0 96 0 72 0c30.9 0 56 25.1 56 56l0 74.2c-15.1 4.3-28.2 14.6-35.8 28.8L400 214l0-126c0-4.4-3.6-8-8-8l-48 0 0 152 46.4 0L336.9 332.2C325.8 353.1 320 376.4 320 400c0 29.6 8.9 57.1 24.2 80L320 480l-96 0-96 0-72 0c-30.9 0-56-25.1-56-56L0 256 0 88zm56-8c-4.4 0-8 3.6-8 8l0 144 56 0 0-152L56 80zM48 424c0 4.4 3.6 8 8 8l48 0 0-152-56 0 0 144zm152 8l0-152-48 0 0 152 48 0zm96 0l0-152-48 0 0 152 48 0zM248 80l0 152 48 0 0-152-48 0zM200 232l0-152-48 0 0 152 48 0zm240.5-25.9c4.6-8.7 13.7-14.1 23.5-14.1s18.9 5.4 23.5 14.1l75.3 141.2c8.7 16.2 13.2 34.3 13.2 52.7c0 61.9-50.1 112-112 112s-112-50.1-112-112c0-18.4 4.5-36.5 13.2-52.7l75.3-141.2z"/></svg>

<svg xmlns="http://www.w3.org/2000/svg" viewBox="0 0 576 512"><!--! Font Awesome Pro 6.4.0 by @fontawesome - https://fontawesome.com License - https://fontawesome.com/license (Commercial License) Copyright 2023 Fonticons, Inc. --><path d="M0 88C0 57.1 25.1 32 56 32h72 96 96 72c30.9 0 56 25.1 56 56v74.2c-15.1 4.3-28.2 14.6-35.8 28.8L400 214V88c0-4.4-3.6-8-8-8H344V232h46.4L336.9 332.2C325.8 353.1 320 376.4 320 400c0 29.6 8.9 57.1 24.2 80H320 224 128 56c-30.9 0-56-25.1-56-56V256 88zm56-8c-4.4 0-8 3.6-8 8V232h56V80H56zM48 424c0 4.4 3.6 8 8 8h48V280H48V424zm152 8V280H152V432h48zm96 0V280H248V432h48zM248 80V232h48V80H248zM200 232V80H152V232h48zm240.5-25.9c4.6-8.7 13.7-14.1 23.5-14.1s18.9 5.4 23.5 14.1l75.3 141.2c8.7 16.2 13.2 34.3 13.2 52.7c0 61.9-50.1 112-112 112s-112-50.1-112-112c0-18.4 4.5-36.5 13.2-52.7l75.3-141.2z"/></svg>
